X: 660
T: Jian lantan
L: 1/8
M: 4/4
K: F
c2c2d c B c [I:setbarnb 1]| 
d f c BG2F G | 
B2G B c d c G | 
F> G F EF4 | 
B2B Gc2c d | 
c B G cE2C2 | 
c A G cG2E2 | 
FC2DC4 |]

@@@ Tune index: 9534
